X: 2129
T: AMBULREE
Q: "Reel."
R: Reel.
%R: reel
B: James Kerr "Merry Melodies" v.2 p.16 #129
Z: 2016 John Chambers <jc:trillian.mit.edu>
M: C
L: 1/8
K: G
A |\
B2BG c2cA | B2BG (A=F)FA |\
B2BG c2cA | (B/c/d) (e/f/g) BGG ::\
ug |\
e2ec d2dB |
(A/_B/c) T=f2 A=FFf |\
[1 e2ec d2dc | (B/c/d) (e/f/g) BGG :|\
[2 eeec dddc | (B/c/d) (e/f/g) BGG |]
